X:005
L:1/8
M:6/8
K:F
{A/2=B/2^c/2}d3 AFA | d3 AFA | d^cd fed | eba gfe |
d3 AFA | d3 AFA | def gag | [1 fdd d3 :| [2 {/g}fdd d||
cB | Acf {/g}fef | ac'a fcf | dbd cac | Bag ecB |

